img/main-icons/right-arrow-icon.svg

<svg width="20" height="30" viewBox="0 0 20 30" fill="none" xmlns="http://www.w3.org/2000/svg">
<path d="M3.96313 0.593667L19.4931 13.8918C19.6774 14.0501 19.8083 14.2216 19.8857 14.4063C19.9631 14.591 20.0012 14.7889 20 15C20 15.2111 19.9613 15.409 19.8838 15.5937C19.8064 15.7784 19.6762 15.9499 19.4931 16.1082L3.96313 29.4459C3.53302 29.8153 2.99539 30 2.35023 30C1.70507 30 1.15207 29.8021 0.691243 29.4063C0.230414 29.0106 -5.17723e-07 28.5488 -5.17723e-07 28.0211C-5.17723e-07 27.4934 0.230414 27.0317 0.691243 26.6359L14.2396 15L0.691243 3.36412C0.261136 2.99472 0.0460817 2.53931 0.0460817 1.99789C0.0460817 1.45647 0.276496 0.98839 0.737325 0.593667C1.19815 0.197888 1.73579 -7.42903e-07 2.35023 -7.42903e-07C2.96466 -7.42903e-07 3.5023 0.197888 3.96313 0.593667Z" fill="black"/>
</svg>

<svg width="20" height="30" fill="none" xmlns="http://www.w3.org/2000/svg"><path d="m3.963.594 15.53 13.298c.184.158.315.33.393.514.077.185.115.383.114.594 0 .211-.039.409-.116.594a1.405 1.405 0 0 1-.39.514L3.963 29.446c-.431.37-.969.554-1.614.554-.645 0-1.198-.198-1.659-.594C.231 29.011 0 28.55 0 28.021s.23-.99.691-1.385L14.24 15 .69 3.364c-.43-.37-.645-.825-.645-1.366 0-.542.23-1.01.691-1.404A2.4 2.4 0 0 1 2.35 0a2.4 2.4 0 0 1 1.613.594Z" fill="#000"/></svg>
